X: 601
T: Levi Jackson Rag
C:R-15
B: good tune book
B: tunes
M:C|
R: rag
Q: 1/4=100
K:G
V:1 
"D7"d2 e2f2 | "G"g4 d4 | edBd- "D7"dBA2 | "G"G8 | D8 | "Bb"=F4 _B4 | d=fgf- fdc2 | "Am"d8 | "D7"e4f4 |
| "G"g4 d4 | edBd- dBA2 | "C"G8 | E6 _E2 | "G"D4 "E7"d4 | "A7"BGA_B- "D7"BGA2 | "G"G4- "C"G4- | "G"G2 |]
[|"G7"G2 F2=F2 | "C"EGAC EGEG | ACEG EGAc | "Am"e2ee- edc2 | A8 |
 "E"^GB^cE GBGB | ^cE^GB GBce | "C#m"^g2gg- gfe2 |^c8 ||
 "E"^g2gg- gfe2 | "A7"=g2gg- gfe2 | "D"f2ff- fede | "D7"fafe defa 
| "G"bage- "E7"edB2 | "A7"edBA- "D7"AGE2 | "G"G4- "C"G4- |"G"G2 |]
% abcbook-tune_id 63dce5d9eb4f7d34563c1a70
% abcbook-tune_composer_id 
% abcbook-link-0 https://www.youtube.com/watch?v=pJm0ha1c2ZA
% abcbook-boost 0
% abcbook-difficulty 0
% abcbook-tags good tune book
% abcbook-tablature 
% abcbook-transpose 
% abcbook-tuning 
% abcbook-lastupdated 1675475151341
% abcbook-soundfonts 
% abcbook-repeats 1
% Rhythm Rag
% Titles One title
% Transcriptions Only 1 transcription
% Movement Has lots of stepwise movement
% Movement Has some stepwise movement
% Mode major
% Key G
% Time_signature 2/2
% Has_accompaniment_chords Has chords

